icons/collaboration-user-16.svg

<?xml version="1.0" encoding="UTF-8"?><svg id="icons" xmlns="http://www.w3.org/2000/svg" viewBox="0 0 16 16"><defs><style>.cls-1{fill:none;}.cls-2{fill:#231f20;}</style></defs><rect class="cls-1" width="16" height="16"/><path class="cls-2" d="M1,10.5v1.5H5v1H0v-2.5c0-1.92969,1.57031-3.5,3.5-3.5h3c.33447,0,.65173,.06213,.95831,.15021-.28577,.26312-.54883,.54865-.77081,.86871-.06299-.00476-.12329-.01892-.1875-.01892H3.5c-1.37842,0-2.5,1.12109-2.5,2.5ZM7.98999,3c0,1.6543-1.33569,3-2.98999,3s-3-1.3457-3-3S3.3457,0,5,0s2.98999,1.3457,2.98999,3Zm-.98999,0c0-1.10254-.89697-2-2-2s-2,.89746-2,2,.89697,2,2,2,2-.89746,2-2Zm2,4.5918v1.14807c-.62732,.55573-1.03125,1.35791-1.03125,2.26013,0,.02893,.00775,.05573,.00854,.08447,.59351,.19977,1.02271,.75378,1.02271,1.41553,0,.82977-.67023,1.5-1.5,1.5s-1.5-.67023-1.5-1.5c0-.66785,.43713-1.22577,1.03925-1.42065-.00055-.02704-.008-.05219-.008-.07935,0-1.45605,.79669-2.71759,1.96875-3.4082Zm-2,4.4082v1h1v-1h-1Zm9,.5c0,.00842-.00238,.01617-.0025,.0246-.00677,.41071-.17633,.78015-.44885,1.04688-.27032,.26453-.63959,.42853-1.04865,.42853-.25763,0-.49609-.07056-.70764-.18445-.71771,.71179-1.70404,1.1532-2.79236,1.1532-.69843,0-1.34558-.19696-1.91626-.51501l.68707-.68842c.37659,.16809,.79089,.26593,1.22919,.26593,.83801,0,1.59723-.34216,2.14648-.89368-.09143-.19403-.14648-.40851-.14648-.63757,0-.82977,.67023-1.5,1.5-1.5s1.5,.67023,1.5,1.5Zm-1-.5h-1v1h1v-1Zm-2-4.5c0,.02985-.00702,.05768-.00873,.08704,.89661,.52527,1.56445,1.38428,1.83417,2.41296h-.97711c-.22443-.63678-.64673-1.1778-1.20392-1.53973-.27496,.32745-.68237,.53973-1.14441,.53973-.82977,0-1.5-.67023-1.5-1.5s.67023-1.5,1.5-1.5,1.5,.67023,1.5,1.5Zm-1-.5h-1v1h1v-1Z"/></svg>

<svg xmlns="http://www.w3.org/2000/svg" viewBox="0 0 16 16"><path fill="none" d="M0 0h16v16H0z"/><path d="M1 10.5V12h4v1H0v-2.5C0 8.57 1.57 7 3.5 7h3c.334 0 .652.062.958.15a5.274 5.274 0 0 0-.77.869C6.625 8.014 6.564 8 6.5 8h-3A2.503 2.503 0 0 0 1 10.5zM7.99 3c0 1.654-1.336 3-2.99 3S2 4.654 2 3s1.346-3 3-3 2.99 1.346 2.99 3zM7 3c0-1.103-.897-2-2-2s-2 .897-2 2 .897 2 2 2 2-.897 2-2zm2 4.592V8.74A3.012 3.012 0 0 0 7.969 11c0 .029.007.056.008.084.594.2 1.023.754 1.023 1.416 0 .83-.67 1.5-1.5 1.5S6 13.33 6 12.5a1.49 1.49 0 0 1 1.04-1.42c-.001-.028-.009-.053-.009-.08 0-1.456.797-2.718 1.969-3.408zM7 12v1h1v-1H7zm9 .5l-.003.025A1.494 1.494 0 0 1 14.5 14c-.257 0-.495-.07-.707-.184A3.955 3.955 0 0 1 11 14.969a3.92 3.92 0 0 1-1.916-.515l.687-.689a3.006 3.006 0 0 0 3.375-.627A1.49 1.49 0 0 1 13 12.5c0-.83.67-1.5 1.5-1.5s1.5.67 1.5 1.5zm-1-.5h-1v1h1v-1zm-2-4.5c0 .03-.007.058-.009.087A3.96 3.96 0 0 1 14.825 10h-.977a3.032 3.032 0 0 0-1.204-1.54A1.49 1.49 0 0 1 11.5 9c-.83 0-1.5-.67-1.5-1.5S10.67 6 11.5 6s1.5.67 1.5 1.5zM12 7h-1v1h1V7z" fill="#231f20"/></svg>
